resources/light/execute.svg

<?xml version="1.0" encoding="UTF-8" standalone="no"?>
<svg
   xmlns:dc="http://purl.org/dc/elements/1.1/"
   xmlns:cc="http://creativecommons.org/ns#"
   xmlns:rdf="http://www.w3.org/1999/02/22-rdf-syntax-ns#"
   xmlns:svg="http://www.w3.org/2000/svg"
   xmlns="http://www.w3.org/2000/svg"
   id="svg4"
   version="1.1"
   height="16"
   width="16">
  <metadata
     id="metadata10">
    <rdf:RDF>
      <cc:Work
         rdf:about="">
        <dc:format>image/svg+xml</dc:format>
        <dc:type
           rdf:resource="http://purl.org/dc/dcmitype/StillImage" />
        <dc:title></dc:title>
      </cc:Work>
    </rdf:RDF>
  </metadata>
  <defs
     id="defs8" />
  <path
     id="path8620"
     d="M 7.2949219 0.9296875 C 3.9283964 0.9296875 4.1386719 2.390625 4.1386719 2.390625 L 4.1425781 3.9023438 L 7.3554688 3.9023438 L 7.3554688 4.3574219 L 2.8671875 4.3574219 C 2.8671875 4.3574219 0.71289062 4.1129099 0.71289062 7.5097656 C 0.71289062 10.906621 2.5917969 10.785156 2.5917969 10.785156 L 3.7148438 10.785156 L 3.7148438 9.2089844 C 3.7148438 9.2089844 3.6537233 7.3300781 5.5644531 7.3300781 L 8.7519531 7.3300781 C 8.7519531 7.3300781 10.541016 7.3586991 10.541016 5.5996094 L 10.541016 2.6894531 C 10.541016 2.6894531 10.813093 0.9296875 7.2949219 0.9296875 z M 5.5234375 1.9472656 C 5.8430671 1.9472656 6.1015625 2.2057608 6.1015625 2.5253906 C 6.1015625 2.8450205 5.8430671 3.1035156 5.5234375 3.1035156 C 5.2038078 3.1035156 4.9453125 2.8450205 4.9453125 2.5253906 C 4.9453125 2.2057608 5.2038078 1.9472656 5.5234375 1.9472656 z M 10.970703 4.2675781 L 10.970703 5.84375 C 10.970703 5.84375 10.968757 5.9386233 10.953125 6.0742188 A 0.50005 0.50005 0 0 1 11.201172 6.0039062 A 0.50005 0.50005 0 0 1 11.5625 6.1503906 L 13.896484 8.484375 C 13.940527 8.2043419 13.972656 7.9017515 13.972656 7.5429688 C 13.972657 4.1461148 12.09375 4.2675781 12.09375 4.2675781 L 10.970703 4.2675781 z M 9.3105469 7.6992188 C 9.2447431 7.7049711 9.1932301 7.7226562 9.1210938 7.7226562 L 5.9335938 7.7226562 C 5.9335938 7.7226562 4.1445313 7.6940342 4.1445312 9.453125 L 4.1445312 12.361328 C 4.1445312 12.361328 3.8724532 14.123047 7.390625 14.123047 C 8.4439708 14.123047 9.129611 13.976078 9.5976562 13.779297 L 9.34375 13.525391 A 0.50005 0.50005 0 0 1 9.203125 13.097656 C 9.1888325 13.098711 9.1766744 13.105469 9.1621094 13.105469 C 8.8424804 13.105469 8.5839844 12.846974 8.5839844 12.527344 C 8.5839844 12.207714 8.8424804 11.949219 9.1621094 11.949219 C 9.4504711 11.949219 9.6787326 12.163586 9.7226562 12.439453 L 10.544922 11.619141 L 10.542969 11.150391 L 7.3300781 11.150391 L 7.3300781 10.695312 L 11.46875 10.695312 L 11.570312 10.59375 L 9.34375 8.3691406 A 0.50005 0.50005 0 0 1 9.3105469 7.6992188 z "
     style="color:#000000;display:inline;overflow:visible;visibility:visible;opacity:1;fill:#424242;fill-opacity:1;fill-rule:nonzero;stroke:none;stroke-width:0.12009695;stroke-linecap:butt;stroke-linejoin:miter;stroke-miterlimit:4;stroke-dasharray:none;stroke-dashoffset:0;stroke-opacity:1;marker:none;marker-start:none;marker-mid:none;marker-end:none" />
  <g
     transform="translate(-0.63519762,-0.01209036)"
     id="g849" />
  <path
     d="m 11.208984,6.5039062 -1.5117184,1.5117188 2.5800784,2.578125 -2.5800784,2.578125 1.5117184,1.511719 3.853198,-3.853198 c 0.132336,-0.132336 0.126999,-0.346293 0.0061,-0.467194 z"
     id="path882"
     style="fill:#424242;fill-opacity:1;stroke:none;stroke-width:1;stroke-miterlimit:4;stroke-dasharray:none;paint-order:stroke fill markers;stroke-linecap:round;stroke-linejoin:round" />
</svg>

<svg xmlns="http://www.w3.org/2000/svg" height="16" width="16">
   <path d="M7.295.93c-3.367 0-3.156 1.46-3.156 1.46l.004 1.512h3.212v.455H2.867S.713 4.113.713 7.51c0 3.397 1.879 3.275 1.879 3.275h1.123V9.21S3.654 7.33 5.565 7.33h3.187s1.789.029 1.789-1.73V2.69S10.813.93 7.295.93zM5.523 1.947a.578.578 0 11.001 1.156.578.578 0 010-1.156zm5.448 2.32v1.577s-.002.095-.018.23a.5.5 0 01.248-.07.5.5 0 01.361.146l2.334 2.334c.045-.28.077-.582.077-.941 0-3.397-1.88-3.275-1.88-3.275h-1.122zM9.31 7.7c-.066.006-.118.024-.19.024H5.934s-1.79-.029-1.79 1.73v2.908s-.272 1.762 3.247 1.762c1.053 0 1.739-.147 2.207-.344l-.254-.254a.5.5 0 01-.14-.427c-.015 0-.027.007-.042.007a.578.578 0 110-1.156.57.57 0 01.56.49l.823-.82-.002-.469H7.33v-.455h4.139l.101-.101-2.226-2.225a.5.5 0 01-.033-.67z" style="marker:none" color="#000" overflow="visible" fill="#424242"/><path d="M11.209 6.504L9.697 8.016l2.58 2.578-2.58 2.578 1.512 1.512 3.853-3.854a.335.335 0 00.006-.467z" fill="#424242" paint-order="stroke fill markers"/>
</svg>
